frontend/src/assets/icons/writing.svg

<svg width="11" height="13" viewBox="0 0 11 13" fill="none" xmlns="http://www.w3.org/2000/svg">
<path d="M2.3895 13H8.61501C9.82846 13 10.4322 12.3694 10.4322 11.1021V1.90392C10.4322 0.64273 9.82846 0 8.61501 0H2.3895C1.18192 0 0.572266 0.64273 0.572266 1.90392V11.1021C0.572266 12.3694 1.18192 13 2.3895 13ZM2.4364 12.0238C1.83259 12.0238 1.51605 11.6903 1.51605 11.0839V1.92211C1.51605 1.32183 1.83259 0.976203 2.44225 0.976203H8.56811C9.17776 0.976203 9.48846 1.31576 9.48846 1.92211V11.0839C9.48846 11.6903 9.17776 12.0238 8.57399 12.0238H2.4364ZM3.28639 3.51072H7.72983C7.93502 3.51072 8.09329 3.34096 8.09329 3.12872C8.09329 2.92256 7.93502 2.76493 7.72983 2.76493H3.28639C3.06949 2.76493 2.91707 2.92256 2.91707 3.12872C2.91707 3.34096 3.06949 3.51072 3.28639 3.51072ZM3.28639 5.62687H7.72983C7.93502 5.62687 8.09329 5.45708 8.09329 5.24486C8.09329 5.0387 7.93502 4.88107 7.72983 4.88107H3.28639C3.06949 4.88107 2.91707 5.0387 2.91707 5.24486C2.91707 5.45708 3.06949 5.62687 3.28639 5.62687ZM3.28639 7.74301H5.39088C5.59605 7.74301 5.75432 7.57927 5.75432 7.37313C5.75432 7.16092 5.59605 6.99718 5.39088 6.99718H3.28639C3.06949 6.99718 2.91707 7.16092 2.91707 7.37313C2.91707 7.57927 3.06949 7.74301 3.28639 7.74301Z" fill="black"/>
</svg>

<svg width="11" height="13" fill="none" xmlns="http://www.w3.org/2000/svg"><path d="M2.39 13h6.225c1.213 0 1.817-.63 1.817-1.898V1.904C10.432.643 9.828 0 8.615 0H2.389C1.182 0 .573.643.573 1.904v9.198C.572 12.37 1.182 13 2.39 13zm.046-.976c-.603 0-.92-.334-.92-.94V1.922c0-.6.317-.946.926-.946h6.126c.61 0 .92.34.92.946v9.162c0 .606-.31.94-.914.94H2.436zm.85-8.513H7.73a.37.37 0 0 0 .363-.382.358.358 0 0 0-.363-.364H3.286a.356.356 0 0 0-.369.364c0 .212.152.382.37.382zm0 2.116H7.73a.37.37 0 0 0 .363-.382.358.358 0 0 0-.363-.364H3.286a.356.356 0 0 0-.369.364c0 .212.152.382.37.382zm0 2.116h2.105a.363.363 0 0 0 .363-.37.364.364 0 0 0-.363-.376H3.286a.362.362 0 0 0-.369.376c0 .206.152.37.37.37z" fill="#000"/></svg>
